packages/core/src/svgs/tokens/mono/KNDX.svg

<svg width="24" height="24" viewBox="0 0 24 24" fill="none" xmlns="http://www.w3.org/2000/svg">
<path d="M11.9686 8.29903C11.97 8.30287 11.9725 8.30615 11.9759 8.30841C11.9792 8.31067 11.9833 8.31177 11.9874 8.31153H11.9999V8.29903L15.6563 2.24878C15.75 2.09252 15.9188 2.01751 16.1063 2.01751C16.6042 2.0183 17.1023 2.02247 17.6001 2.03003C17.6023 2.03382 17.6035 2.03813 17.6035 2.04252C17.6035 2.04691 17.6023 2.05122 17.6001 2.05502L14.1624 7.50524C14.1557 7.51593 14.1465 7.52489 14.1356 7.53139C14.1248 7.53791 14.1125 7.54179 14.1 7.54275C13.925 7.55525 13.7624 7.5615 13.6125 7.65526C13.0123 8.04277 13.1936 8.94905 13.9062 9.09282C14.5436 9.22408 15.0312 8.45529 14.6437 7.88026C14.6357 7.86945 14.6311 7.85628 14.6311 7.84276C14.6311 7.82924 14.6357 7.81607 14.6437 7.80526L18.2688 2.05502C18.2776 2.04337 18.2889 2.03392 18.3019 2.02742C18.3149 2.02091 18.3293 2.01751 18.3439 2.01751C18.7001 2.01751 19.4501 1.93627 19.7189 2.12377C20.0252 2.33003 19.9251 2.6863 19.744 2.96755C17.9125 5.86767 16.075 8.7803 14.2313 11.6805C14.2199 11.6971 14.2139 11.7166 14.2139 11.7366C14.2139 11.7567 14.2199 11.7763 14.2313 11.7929L19.9065 20.9682C20.0877 21.2558 20.2627 21.5933 19.9689 21.8434C19.7126 22.0496 19.219 21.9996 18.8813 21.9808C18.8688 21.9799 18.8566 21.976 18.8458 21.9696C18.8348 21.963 18.8256 21.954 18.8189 21.9433L8.63721 5.84893C8.6291 5.83811 8.62471 5.82496 8.62471 5.81142C8.62471 5.7979 8.6291 5.78475 8.63721 5.77393C8.71542 5.65294 8.75836 5.51255 8.76122 5.36854C8.76407 5.22451 8.72672 5.08253 8.65337 4.95854C8.58002 4.83456 8.47356 4.73347 8.34595 4.66663C8.21834 4.59979 8.07462 4.56983 7.93094 4.58013C6.97464 4.63012 7.00589 6.16144 8.01844 6.12394C8.02922 6.12329 8.03998 6.12544 8.04969 6.13018C8.05948 6.13422 8.06808 6.14067 8.07469 6.14894L18.0626 21.937C18.0654 21.9419 18.0668 21.9473 18.0668 21.9526C18.0668 21.9582 18.0654 21.9636 18.0626 21.9684L18.0501 21.9808H18.0377L16.4626 21.9871C16.275 21.9871 16.1 21.8246 15.9937 21.6559L12.0374 15.2181C12.006 15.1618 11.9748 15.1618 11.9373 15.2181L7.99969 21.7183C7.88093 21.9058 7.65593 21.9871 7.42467 21.9871H4.41829C4.33079 21.9871 4.28704 21.9621 4.21203 21.9246C3.84952 21.7371 3.77452 21.462 4.00577 21.0996C5.93711 17.9933 7.86219 14.8867 9.78097 11.7742C9.78768 11.764 9.79132 11.7521 9.79132 11.7398C9.79132 11.7276 9.78768 11.7156 9.78097 11.7054L4.34953 3.07381C4.23468 2.91645 4.15187 2.73808 4.10577 2.54879C4.06202 2.14877 4.41829 2.01751 4.76205 2.01751H7.84968C8.21845 2.01751 8.31221 2.14253 8.48721 2.44253L11.9686 8.29903Z" fill="white"/>
</svg>

<svg xmlns="http://www.w3.org/2000/svg" width="24" height="24" fill="none" viewBox="0 0 24 24">
    <path fill="#fff" d="M11.969 8.299a.02.02 0 0 0 .018.013H12v-.013l3.656-6.05c.094-.156.263-.231.45-.231q.747 0 1.494.012a.03.03 0 0 1 0 .025l-3.438 5.45a.08.08 0 0 1-.062.038c-.175.012-.338.018-.487.112-.6.388-.42 1.294.293 1.438.638.131 1.125-.638.738-1.213a.06.06 0 0 1-.013-.037q0-.021.013-.038l3.625-5.75a.1.1 0 0 1 .075-.037c.356 0 1.106-.082 1.375.106.306.206.206.562.025.844-1.831 2.9-3.669 5.812-5.513 8.712a.1.1 0 0 0 0 .113l5.676 9.175c.18.288.356.625.062.875-.256.207-.75.157-1.088.138a.08.08 0 0 1-.062-.038L8.637 5.85a.06.06 0 0 1 0-.075.775.775 0 0 0-.706-1.194c-.956.05-.925 1.581.087 1.544q.017 0 .032.006t.025.019l9.988 15.788a.03.03 0 0 1 0 .031l-.013.013h-.012l-1.575.006c-.188 0-.363-.162-.47-.331l-3.956-6.438q-.045-.084-.1 0L8 21.718c-.12.188-.344.27-.575.27H4.418c-.087 0-.131-.026-.206-.063-.362-.188-.437-.463-.206-.825q2.896-4.658 5.775-9.326a.06.06 0 0 0 0-.069L4.35 3.074a1.5 1.5 0 0 1-.244-.525c-.044-.4.312-.531.656-.531H7.85c.368 0 .462.125.637.425z"/>
</svg>
